icons/printer-line.svg

<svg xmlns="http://www.w3.org/2000/svg" width="24" height="24" fill="none"><g clip-path="url(#a)"><g><path fill="#121212" d="M6 19H3C2.73478 19 2.48043 18.8946 2.29289 18.7071C2.10536 18.5196 2 18.2652 2 18V8C2 7.73478 2.10536 7.48043 2.29289 7.29289C2.48043 7.10536 2.73478 7 3 7H6V3C6 2.73478 6.10536 2.48043 6.29289 2.29289C6.48043 2.10536 6.73478 2 7 2H17C17.2652 2 17.5196 2.10536 17.7071 2.29289C17.8946 2.48043 18 2.73478 18 3V7H21C21.2652 7 21.5196 7.10536 21.7071 7.29289C21.8946 7.48043 22 7.73478 22 8V18C22 18.2652 21.8946 18.5196 21.7071 18.7071C21.5196 18.8946 21.2652 19 21 19H18V21C18 21.2652 17.8946 21.5196 17.7071 21.7071C17.5196 21.8946 17.2652 22 17 22H7C6.73478 22 6.48043 21.8946 6.29289 21.7071C6.10536 21.5196 6 21.2652 6 21V19ZM6 17V16C6 15.7348 6.10536 15.4804 6.29289 15.2929C6.48043 15.1054 6.73478 15 7 15H17C17.2652 15 17.5196 15.1054 17.7071 15.2929C17.8946 15.4804 18 15.7348 18 16V17H20V9H4V17H6ZM8 4V7H16V4H8ZM8 17V20H16V17H8ZM5 10H8V12H5V10Z"/></g></g><defs><clipPath id="a"><rect width="24" height="24" fill="white"/></clipPath></defs></svg>

<svg width="24" height="24" fill="none" xmlns="http://www.w3.org/2000/svg"><g clip-path="url(#a)"><path d="M6 19H3a1 1 0 0 1-1-1V8a1 1 0 0 1 1-1h3V3a1 1 0 0 1 1-1h10a1 1 0 0 1 1 1v4h3a1 1 0 0 1 1 1v10a1 1 0 0 1-1 1h-3v2a1 1 0 0 1-1 1H7a1 1 0 0 1-1-1v-2Zm0-2v-1a1 1 0 0 1 1-1h10a1 1 0 0 1 1 1v1h2V9H4v8h2ZM8 4v3h8V4H8Zm0 13v3h8v-3H8Zm-3-7h3v2H5v-2Z" /></g><defs><clipPath id="a"><path fill="#fff" d="M0 0h24v24H0z"/></clipPath></defs></svg>
